public/circulos-fondo-grande.svg

<svg width="1114" height="1566" viewBox="0 0 1114 1566" fill="none" xmlns="http://www.w3.org/2000/svg">
    <path d="M510.529 1002.46c139.273 112.01 343.72 89.84 455.736-49.436 73.925-91.919 89.385-212.225 51.325-315.614l17.66-7.845c40.87 109.807 24.66 237.816-53.951 335.551-118.685 147.564-335.302 171.064-482.868 52.384-38.41-30.893-68.386-68.431-89.666-109.65l17.663-7.845c20.06 38.495 48.167 73.553 84.101 102.455z" fill="#86B91E"/>
    <path d="M1018.98 627.423c-3.34 4.157-2.69 10.233 1.47 13.576a9.655 9.655 0 1 0 12.1-15.049c-4.15-3.343-10.23-2.684-13.57 1.473zM410.117 898.013a9.654 9.654 0 0 0 1.473 13.576 9.654 9.654 0 0 0 13.576-1.473 9.653 9.653 0 0 0-1.473-13.575 9.654 9.654 0 0 0-13.576 1.472z" fill="#86B91E"/>
    <path d="M461.458 1063.47c172.918 139.08 426.742 111.54 565.822-61.37 139.07-172.923 111.54-426.747-61.379-565.823a407.026 407.026 0 0 0-22.331-16.72c-1.03-.721.526-1.855-.509-2.556l10.751-13.811a426.252 426.252 0 0 1 24.181 18.053c181.207 145.745 210.067 411.734 64.317 592.947-145.745 181.21-411.739 210.07-592.95 64.32a421.32 421.32 0 0 1-66.417-66.9l12.339-11.965c.69.875 2.397-.518 3.087.355a402.361 402.361 0 0 0 63.089 63.47z" fill="#1A171B"/>
    <path d="M941.28 405.382a9.652 9.652 0 0 0 1.472 13.575 9.653 9.653 0 0 0 13.576-1.472 9.654 9.654 0 0 0-1.473-13.576 9.653 9.653 0 0 0-13.575 1.473zM383.187 999.825c-3.343 4.155-2.684 10.235 1.473 13.575s10.232 2.69 13.576-1.47a9.655 9.655 0 0 0-1.473-13.577 9.653 9.653 0 0 0-13.576 1.472z" fill="#1A171B"/>
    <path d="M1161.32 1109.9c198.52-246.824 159.22-609.15-87.61-807.671-137.919-110.926-311.883-147.573-473.194-115.282-1.979.399-2.521-1.551-4.486-1.14l.458-18.022c17.488-3.49 35.213-6.265 53.16-8.205 157.675-17.11 312.565 28.216 436.152 127.616 123.59 99.4 201.07 240.968 218.17 398.645 17.11 157.676-28.22 312.566-127.62 436.159-99.4 123.58-240.965 201.07-398.643 218.16-98.916 10.74-196.746-3.11-286.427-39.46l3.445-17.05c2.008.84 2.453-1.64 4.464-.84 228.533 91.83 499.972 28.71 662.131-172.91z" fill="#1A171B"/>
    <path d="M590.989 171.246c-3.384 4.208-2.717 10.362 1.491 13.746 4.207 3.384 10.362 2.716 13.746-1.491 3.384-4.208 2.716-10.362-1.491-13.746-4.208-3.384-10.362-2.716-13.746 1.491zM487.474 1285.58c-3.378 4.2-2.711 10.35 1.489 13.73 4.208 3.39 10.355 2.71 13.733-1.49 3.384-4.21 2.718-10.35-1.49-13.73-4.2-3.38-10.348-2.72-13.732 1.49z" fill="#1A171B"/>
    <path d="M1093.04 1054.99c168.25-209.185 134.94-516.24-74.24-684.485-70.827-56.963-152.866-90.804-236.943-102.552-1.873-.266-2.099-2.284-3.975-2.517l5.629-16.726c87.776 12.087 173.46 47.298 247.379 106.754 217.48 174.914 252.1 494.141 77.19 711.616-167.885 208.74-468.701 249-684.903 97.23l8.271-14.24c1.52 1.09 2.05-2.06 3.587-.99 207.896 145.32 496.731 106.43 658.005-94.09z" fill="#86B91E"/>
    <path d="M775.672 252.352c-3.349 4.164-2.695 10.26 1.476 13.615 4.164 3.349 10.266 2.687 13.615-1.477s2.688-10.266-1.476-13.615c-4.172-3.355-10.266-2.687-13.615 1.477zM421.686 1150.73c-3.343 4.16-2.684 10.24 1.472 13.58 4.157 3.34 10.233 2.68 13.576-1.47 3.343-4.16 2.684-10.24-1.472-13.58-4.157-3.34-10.233-2.68-13.576 1.47z" fill="#86B91E"/>
</svg>

<svg width="1114" height="1566" viewBox="0 0 1114 1566" fill="none" xmlns="http://www.w3.org/2000/svg">
<path d="M510.529 1002.46C649.802 1114.47 854.249 1092.3 966.265 953.024C1040.19 861.105 1055.65 740.799 1017.59 637.41L1035.25 629.565C1076.12 739.372 1059.91 867.381 981.299 965.116C862.614 1112.68 645.997 1136.18 498.431 1017.5C460.021 986.607 430.045 949.069 408.765 907.85L426.428 900.005C446.488 938.5 474.595 973.558 510.529 1002.46Z" fill="#86B91E"/>
<path d="M1018.98 627.423C1015.64 631.58 1016.29 637.656 1020.45 640.999C1024.61 644.342 1030.68 643.683 1034.03 639.526C1037.37 635.369 1036.71 629.294 1032.55 625.95C1028.4 622.607 1022.32 623.266 1018.98 627.423Z" fill="#86B91E"/>
<path d="M410.117 898.013C406.774 902.17 407.433 908.246 411.59 911.589C415.747 914.932 421.822 914.273 425.166 910.116C428.509 905.96 427.85 899.884 423.693 896.541C419.536 893.197 413.461 893.857 410.117 898.013Z" fill="#86B91E"/>
<path d="M461.458 1063.47C634.376 1202.55 888.2 1175.01 1027.28 1002.1C1166.35 829.177 1138.82 575.353 965.901 436.277C958.601 430.406 951.143 424.836 943.57 419.557C942.54 418.836 944.096 417.702 943.061 417.001L953.812 403.19C962.017 408.883 970.092 414.888 977.993 421.243C1159.2 566.988 1188.06 832.977 1042.31 1014.19C896.565 1195.4 630.571 1224.26 449.36 1078.51C424.275 1058.34 402.131 1035.85 382.943 1011.61L395.282 999.645C395.972 1000.52 397.679 999.127 398.369 1000C416.614 1022.99 437.647 1044.32 461.458 1063.47Z" fill="#1A171B"/>
<path d="M941.28 405.382C937.936 409.538 938.595 415.614 942.752 418.957C946.909 422.301 952.985 421.642 956.328 417.485C959.671 413.328 959.012 407.252 954.855 403.909C950.699 400.566 944.623 401.225 941.28 405.382Z" fill="#1A171B"/>
<path d="M383.187 999.825C379.844 1003.98 380.503 1010.06 384.66 1013.4C388.817 1016.74 394.892 1016.09 398.236 1011.93C401.579 1007.77 400.92 1001.7 396.763 998.353C392.606 995.009 386.531 995.668 383.187 999.825Z" fill="#1A171B"/>
<path d="M1161.32 1109.9C1359.84 863.076 1320.54 500.75 1073.71 302.229C935.791 191.303 761.827 154.656 600.516 186.947C598.537 187.346 597.995 185.396 596.03 185.807L596.488 167.785C613.976 164.295 631.701 161.52 649.648 159.58C807.323 142.47 962.213 187.796 1085.8 287.196C1209.39 386.596 1286.87 528.164 1303.97 685.841C1321.08 843.517 1275.75 998.407 1176.35 1122C1076.95 1245.58 935.385 1323.07 777.707 1340.16C678.791 1350.9 580.961 1337.05 491.28 1300.7L494.725 1283.65C496.733 1284.49 497.178 1282.01 499.189 1282.81C727.722 1374.64 999.161 1311.52 1161.32 1109.9Z" fill="#1A171B"/>
<path d="M590.989 171.246C587.605 175.454 588.272 181.608 592.48 184.992C596.687 188.376 602.842 187.708 606.226 183.501C609.61 179.293 608.942 173.139 604.735 169.755C600.527 166.371 594.373 167.039 590.989 171.246Z" fill="#1A171B"/>
<path d="M487.474 1285.58C484.096 1289.78 484.763 1295.93 488.963 1299.31C493.171 1302.7 499.318 1302.02 502.696 1297.82C506.08 1293.61 505.414 1287.47 501.206 1284.09C497.006 1280.71 490.858 1281.37 487.474 1285.58Z" fill="#1A171B"/>
<path d="M1093.04 1054.99C1261.29 845.805 1227.98 538.75 1018.8 370.505C947.973 313.542 865.934 279.701 781.857 267.953C779.984 267.687 779.758 265.669 777.882 265.436L783.511 248.71C871.287 260.797 956.971 296.008 1030.89 355.464C1248.37 530.378 1282.99 849.605 1108.08 1067.08C940.195 1275.82 639.379 1316.08 423.177 1164.31L431.448 1150.07C432.968 1151.16 433.498 1148.01 435.035 1149.08C642.931 1294.4 931.766 1255.51 1093.04 1054.99Z" fill="#86B91E"/>
<path d="M775.672 252.352C772.323 256.516 772.977 262.612 777.148 265.967C781.312 269.316 787.414 268.654 790.763 264.49C794.112 260.326 793.451 254.224 789.287 250.875C785.115 247.52 779.021 248.188 775.672 252.352Z" fill="#86B91E"/>
<path d="M421.686 1150.73C418.343 1154.89 419.002 1160.97 423.158 1164.31C427.315 1167.65 433.391 1166.99 436.734 1162.84C440.077 1158.68 439.418 1152.6 435.262 1149.26C431.105 1145.92 425.029 1146.58 421.686 1150.73Z" fill="#86B91E"/>
</svg>
